X:454
T:Bye a While
R:jig
D:P\'adraig Rynne: Bye a While
Z:hn-jig-454
M:6/8
L:1/8
K:A
c2e fec | ecA BAF | EFA cea | ~f3 ecB |
Ace fec | ecA BAF | d2f ecB |1 BAG Aed :|2 BAG Ace ||
|: c'2b bag | afe fec | def ecA | cBA BAF |
E2A FAE | Ace fec | def ecB |1 BAG Ace :|2 BAG Aed ||

